X: 37371
T: Sleep Soond Ida Mornin'
R: reel
M: 4/4
K: Aminor
a3g a3f|gedB GABG|a3g a3f|gedB A3e|
a3g a3f|gedB GABG|a3g a3f|gedB A3B||
cAeA cAeA|BcdB G3B|cAeA cAeA|BAGB A3B|
cAeA cAeA|BcdB G3B|ABcd efga|gedB BA A2||

